X: 44
T: Missa L'homme arm\'e / Sanctus
N: Derived from Ock1008d-Missa_Lhomme_arme-Sanctus.krn
C: Johannes Ockeghem
%%abc-version 2.0
%%abcx-abcm2ps-target-version 5.9.1 (29 Sep 2008)
%%abc-creator hum2abc beta
%%abcx-conversion-date 2019/02/17 07:26:14
%%abc-edited-by Jesse Rodin
%%abc-edited-by Jesse Rodin
%%abcx-initial-encoding-date <2012///
%%humdrum-veritas 453764423
%%humdrum-veritas-data 1317095564
%%linebreak <none>
%%barnumbers 0
L: 1/4
M: 3/1
Q: 1/2=120
%%staves [1 2 3 4]
V: 1 clef=treble
V: 2 clef=treble-8
V: 3 clef=treble-8
V: 4 clef=bass
K: C
[V:1] G8G4 | 
[V:2] d8e4 | 
[V:3] G8G4 :
[V:4] G,8G,4 | 
[V:1] A6G2E3F | 
[V:2] f6e2c4 | 
[V:3] c8c4 | 
[V:4] F,6G,2A,4 | 
[V:1] G4A6GA | 
[V:2] d4e4f4 | 
[V:3] B4A8 :
[V:4] G,4C8 | 
[V:1] B8B4 | 
[V:2] g8z4 | 
[V:3] G12 | 
[V:4] D12 | 
[V:1] A4B2d4c2 | 
[V:2] f8g4 | 
[V:3] d4d4G4 :
[V:4] D,8z4 | 
[V:1] B2A3GA2F3E | 
[V:2] f4d4z4 | 
[V:3] d4d4d4 | 
[V:4] D,6F,4G,2 | 
[V:1] E12 | 
[V:2] a6f2e4 | 
[V:3] c12 :
[V:4] A,12 | 
[V:1] z12 | 
[V:2] d2f3ef2gfed | 
[V:3] B4A8 | 
[V:4] D,12 | 
[V:1] z4z4G4 | 
[V:2] c2e4d2B2^c2 | 
[V:3] G8z4 :
[V:4] E,12 | 
[V:1] F6G2A3G | 
[V:2] d3cA8 | 
[V:3] d4d4d4 | 
[V:4] D,12 | 
[V:1] E2D2z2G2A2c2 | 
[V:2] z4d4c4 | 
[V:3] G8z4 :
[V:4] _B,8A,4 | 
[V:1] B4G4c4 | 
[V:2] d6e2c4 | 
[V:3] g8g4 | 
[V:4] G,3A,=B,2C4E2 | 
[V:1] B2A2z2d2c2A2 | 
[V:2] z4z4c4 | 
[V:3] f8f4 :
[V:4] D3CB,2G,2A,4 | 
[V:1] B6G4c2 | 
[V:2] d4B4c3B | 
[V:3] g8e4 | 
[V:4] G,8C,4 | 
[V:1] B2G2A2G2d4 | 
[V:2] G4z4g4 | 
[V:3] d12 :
[V:4] G,4F,2G,3A,B,2 | 
[V:1] c2B4A4^G2 | 
[V:2] a3gfee4d2 | 
[V:3] z12 | 
[V:4] A,2D4C2B,4 | 
[V:1] A6c4d2 | 
[V:2] e8f4 | 
[V:3] z12 :
[V:4] A,12 | 
[V:1] e6dec2A2 | 
[V:2] e4c8 | 
[V:3] g8g4 | 
[V:4] z12 | 
[V:1] B2d4c2A2B2 | 
[V:2] d4B2c2d4 | 
[V:3] f8f4 :
[V:4] z12 | 
[V:1] c4z4c4 | 
[V:2] c12 | 
[V:3] g8e4 | 
[V:4] C,12 | 
[V:1] d8e4 | 
[V:2] B12 | 
[V:3] d8g4 :
[V:4] G,12 | 
[V:1] f4e6d2 | 
[V:2] A4c8 | 
[V:3] a8g4 | 
[V:4] F,3E,C,8 | 
[V:1] d4c3BG4 | 
[V:2] A4G3AB2c2 | 
[V:3] f4e8 :
[V:4] D,4E,3F,G,2A,2 | 
[V:1] F2_B3Ad3cc2 | 
[V:2] d2G3AB3cde | 
[V:3] d12 | 
[V:4] B,3CD3EF3E | 
[V:1] =B2A3GG4^F2 | 
[V:2] f2e4d4c2 | 
[V:3] z12 :
[V:4] D2C2G,2B,2A,4 | 
[V:1] G12 ||  
[V:2] d12 ||  
[V:3] d12 ||  
[V:4] G,12 ||  
[V:1]  [K:C] [K:clef=treble][M:3/1]z12 | 
[V:2]  [K:C] [K:clef=treble-8][M:3/1]G4A2B4c2 | 
[V:3]  [K:C] [K:clef=treble-8][M:3/1]z12 | 
[V:4]  [K:C] [K:clef=bass][M:3/1]z12 | 
[V:1] z12 | 
[V:2] A3Bc2d4e2 | 
[V:3] z12 | 
[V:4] z2D,2E,2D,2F,2G,2 | 
[V:1] z12 | 
[V:2] c3de2f4ed | 
[V:3] z12 | 
[V:4] A,8_B,4 | 
[V:1] z12 | 
[V:2] c4d2f2e4 | 
[V:3] z12 | 
[V:4] A,G,A,2=B,2D4^C2 | 
[V:1] z12 | 
[V:2] z2d3Gd2e2f2 | 
[V:3] z12 | 
[V:4] D2G,2D2B,2A,4 | 
[V:1] z12 | 
[V:2] g2e2d2z2c2d2 | 
[V:3] z12 | 
[V:4] G,4z2G,2A,2B,2 | 
[V:1] z12 | 
[V:2] e2f4d2d3e | 
[V:3] z12 | 
[V:4] C2A,2_B,4G,2F,2- | 
[V:1] z12 | 
[V:2] dc/B/A2d4c2_B2 | 
[V:3] z12 | 
[V:4] F,2z2F,2G,2A,2_B,2- | 
[V:1] z12 | 
[V:2] G2F2c4d4 | 
[V:3] z12 | 
[V:4] B,G,A,3G,F,E,D,2G,2- | 
[V:1] z12 | 
[V:2] _B2c4_e2d4 | 
[V:3] z12 | 
[V:4] G,2F,2_E,2C,2_B,,2F,2- | 
[V:1] z12 | 
[V:2] c2_B2A2d2c_B2A/G/ | 
[V:3] z12 | 
[V:4] F,2G,2D,2F,2=E,2D,E, | 
[V:1] z12 | 
[V:2] F2_B2c2G2A4 | 
[V:3] z12 | 
[V:4] D,2G,2A,2G,4^F,2 | 
[V:1] z4z4G4 | 
[V:2] G4z4_B4 | 
[V:3] z12 | 
[V:4] G,8z4 | 
[V:1] F4G2A3GE2 | 
[V:2] A4_B2A2c4 | 
[V:3] z12 | 
[V:4] z12 | 
[V:1] z2A3DA2G2F2 | 
[V:2] F4f4e2d2 | 
[V:3] z12 | 
[V:4] z12 | 
[V:1] E4D4z4 | 
[V:2] z2g2f2a4g2 | 
[V:3] z12 | 
[V:4] z4D,4F,2G,2 | 
[V:1] D4C4D4 | 
[V:2] f2ede2A2d2f2 | 
[V:3] z12 | 
[V:4] _B,4A,4G,2D2- | 
[V:1] A,4A3Bc2d2- | 
[V:2] e4d4z2d2- | 
[V:3] z12 | 
[V:4] D2^C2D4z4 | 
[V:1] dcBAG2c2B2A2- | 
[V:2] def2g2c2e2f2 | 
[V:3] z12 | 
[V:4] z12 | 
[V:1] AGF2E4z2E2 | 
[V:2] d4c8 | 
[V:3] z12 | 
[V:4] z4z4C,4 | 
[V:1] D2F2E3CD2C2 | 
[V:2] d4G2c2B2c2 | 
[V:3] z12 | 
[V:4] B,,4C,4z4 | 
[V:1] F3GE4z4 | 
[V:2] A2B2c2d2B3A | 
[V:3] z12 | 
[V:4] z4C,4D,4 | 
[V:1] z12 | 
[V:2] (3:2:7c2d2e2c2d4B2A4 | 
[V:3] z12 | 
[V:4] C,4G,4^F,4 | 
[V:1] z2G2A2c3BB2- | 
[V:2] G4z2F2G4 | 
[V:3] z12 | 
[V:4] G,4z4E,4 | 
[V:1] BAA4G2A4 | 
[V:2] A4_B4A3=B | 
[V:3] z12 | 
[V:4] F,4G,4D,4 | 
[V:1] z2A2B2c2d4 | 
[V:2] c2d4c2f4 | 
[V:3] z12 | 
[V:4] A,2F,2G,2A,2D,4 | 
[V:1] c2_B4AGF2G2 | 
[V:2] e2d2edcBA2B2 | 
[V:3] z12 | 
[V:4] z4G,4D,2G,2 | 
[V:1] A3F2DE2D4 | 
[V:2] A2d4c2d2_B2- | 
[V:3] z12 | 
[V:4] F,2D,2A,4_B,2G,2- | 
[V:1] D12 ||  
[V:2] B2A2_B4A4 ||  
[V:3] z12 ||  
[V:4] G,2F,2G,4D,4 ||  
[V:1]  [K:C] [K:clef=treble][M:2/1]G8- | 
[V:2]  [K:C] [K:clef=treble-8][M:2/1]d8- | 
[V:3]  [K:C] [K:clef=treble-8][M:2/1]z8 :
[V:4]  [K:C] [K:clef=bass][M:2/1]_B,8- | 
[V:1] G4E4 | 
[V:2] d4g4- | 
[V:3] G8- :
[V:4] B,8 | 
[V:1] D6G2- | 
[V:2] g2f2d4- | 
[V:3] G8 :
[V:4] _B,8- | 
[V:1] G2A2G2FG | 
[V:2] d2c2d4 | 
[V:3] G8 :
[V:4] B,8 | 
[V:1] A8- | 
[V:2] e8 | 
[V:3] c8- :
[V:4] A,8 | 
[V:1] A4G4 | 
[V:2] f4g4- | 
[V:3] c8 | 
[V:4] F,4E,4 | 
[V:1] E4A4- | 
[V:2] g2e2e4- | 
[V:3] c8 :
[V:4] C,8 | 
[V:1] A2G2G4- | 
[V:2] e2d2d4- | 
[V:3] B8 :
[V:4] z8 | 
[V:1] G2^F2F2EF | 
[V:2] d2c2c2B2 | 
[V:3] A8 :
[V:4] z8 | 
[V:1] G8 | 
[V:2] d8- | 
[V:3] G8- :
[V:4] z8 | 
[V:1] D4G4 | 
[V:2] d8 | 
[V:3] G8 :
[V:4] =B,8 | 
[V:1] F4E4- | 
[V:2] z8 | 
[V:3] z8 | 
[V:4] A,8 | 
[V:1] E2F2G4 | 
[V:2] z8 | 
[V:3] z8 :
[V:4] C4B,4 | 
[V:1] F4A4- | 
[V:2] z8 | 
[V:3] x8 :
[V:4] D8 | 
[V:1] A4E4- | 
[V:2] z8 | 
[V:3] x8 :
[V:4] A,8 | 
[V:1] E4G4 | 
[V:2] z8 | 
[V:3] z8 :
[V:4] C8 | 
[V:1] F4A4- | 
[V:2] z8 | 
[V:3] x8 :
[V:4] D8 | 
[V:1] A2G2F4 | 
[V:2] z8 | 
[V:3] x8 | 
[V:4] E4D4- | 
[V:1] E8 | 
[V:2] z8 | 
[V:3] z8 :
[V:4] D4^C4 | 
[V:1] D8 | 
[V:2] _B8 | 
[V:3] x8 :
[V:4] D8 | 
[V:1] z4F4- | 
[V:2] A8 | 
[V:3] d8 :
[V:4] D,8- | 
[V:1] F2G2A4 | 
[V:2] f6ed | 
[V:3] d8 :
[V:4] D,8 | 
[V:1] _B6AB | 
[V:2] g8 | 
[V:3] G8 :
[V:4] z8 | 
[V:1] c8 | 
[V:2] a8 | 
[V:3] z8 | 
[V:4] F,4A,4 | 
[V:1] d4e4- | 
[V:2] d4c4 | 
[V:3] z8 :
[V:4] G,4C4- | 
[V:1] e2d2d4- | 
[V:2] g4f4 | 
[V:3] x8 :
[V:4] C4D4 | 
[V:1] d4^c4 | 
[V:2] e8 | 
[V:3] x8 :
[V:4] A,8 | 
[V:1] d8 | 
[V:2] d8 | 
[V:3] z8 :
[V:4] _B,4G,4- | 
[V:1] z8 | 
[V:2] _B4A4 | 
[V:3] d8 :
[V:4] G,4F,4 | 
[V:1] G8 | 
[V:2] _B8 | 
[V:3] d8 | 
[V:4] G,8 | 
[V:1] F8 | 
[V:2] A8- | 
[V:3] d8 :
[V:4] D,8 | 
[V:1] E8 | 
[V:2] A8 | 
[V:3] c8- :
[V:4] z8 | 
[V:1] z4A4 | 
[V:2] f8 | 
[V:3] c8 :
[V:4] F,8 | 
[V:1] G2G4FE | 
[V:2] e4d4- | 
[V:3] B8 :
[V:4] G,8 | 
[V:1] F8 | 
[V:2] d4d4 | 
[V:3] A8- :
[V:4] D,8 | 
[V:1] c4A4 | 
[V:2] e4f4 | 
[V:3] A8 | 
[V:4] z4C4 | 
[V:1] B4d4 | 
[V:2] g8 | 
[V:3] G8 :
[V:4] D4B,4 | 
[V:1] c4A4- | 
[V:2] e4c4 | 
[V:3] A8 :
[V:4] C4F,4- | 
[V:1] A4A4 | 
[V:2] f8 | 
[V:3] c8 :
[V:4] F,4A,4 | 
[V:1] B4c4- | 
[V:2] g6a2- | 
[V:3] d4e4- :
[V:4] G,4C4- | 
[V:1] c4B4 | 
[V:2] a2g2f2gf | 
[V:3] e4d4 :
[V:4] C4z2G,2- | 
[V:1] G4A4 | 
[V:2] edd4c2 | 
[V:3] e2g4^f2 | 
[V:4] G,2B,2A,4 | 
[V:1] B4A2G2- | 
[V:2] d6B2- | 
[V:3] g4f2e2- :
[V:4] G,4z2G,2- | 
[V:1] GFF2E3D | 
[V:2] B2A2G4 | 
[V:3] e2d4c2 :
[V:4] G,2D,2E,2F,2 | 
[V:1] D8 | 
[V:2] z4d4 | 
[V:3] B4A4 :
[V:4] G,4F,4 | 
[V:1] G4A4 | 
[V:2] e4f4 | 
[V:3] G2c6 :
[V:4] E,4A,4 | 
[V:1] B2G3FG2 | 
[V:2] g4e4 | 
[V:3] d4B4 :
[V:4] G,8 | 
[V:1] A2^F4EF | 
[V:2] d8 | 
[V:3] A8 | 
[V:4] D,8 | 
[V:1] G8 ||  
[V:2] d8 ||  
[V:3] G8 ||  
[V:4] G,8 ||  
[V:1]  [K:C] [K:clef=treble][M:2/1]G6E2 | 
[V:2]  [K:C] [K:clef=treble-8][M:4/2]G8 | 
[V:3]  [K:C] [K:clef=treble-8][M:2/1]z8 | 
[V:4]  [K:C] [K:clef=bass][M:4/2]z8 | 
[V:1] F2EFG4 | 
[V:2] A4G4 | 
[V:3] z8 | 
[V:4] z8 | 
[V:1] A2B2c2d2 | 
[V:2] F8 | 
[V:3] z8 | 
[V:4] z8 | 
[V:1] B3GA2G2- | 
[V:2] G4c4 | 
[V:3] z8 | 
[V:4] z8 | 
[V:1] G2F2E2C2- | 
[V:2] d4e4 | 
[V:3] z8 | 
[V:4] z8 | 
[V:1] C2E2D2G2- | 
[V:2] g4f2e2 | 
[V:3] z8 | 
[V:4] z8 | 
[V:1] G4A2c2 | 
[V:2] c4f2e2 | 
[V:3] z8 | 
[V:4] z8 | 
[V:1] B2d3cAc | 
[V:2] g4f4 | 
[V:3] z8 | 
[V:4] z8 | 
[V:1] B3GA2G2- | 
[V:2] g2c4B2 | 
[V:3] z8 | 
[V:4] z8 | 
[V:1] G2^F2G4 | 
[V:2] A4G2c2- | 
[V:3] z8 | 
[V:4] z8 | 
[V:1] A2c2B2G2 | 
[V:2] cdefd2g2 | 
[V:3] z8 | 
[V:4] z8 | 
[V:1] A2G2F2G2 | 
[V:2] f2g2a2g2- | 
[V:3] z8 | 
[V:4] z8 | 
[V:1] A4G3E | 
[V:2] g2^f2g4 | 
[V:3] z8 | 
[V:4] z8 | 
[V:1] F2E2C4 | 
[V:2] a2g4e2 | 
[V:3] z8 | 
[V:4] z8 | 
[V:1] D2B,2A,2C2- | 
[V:2] f2g2a4 | 
[V:3] z8 | 
[V:4] z8 | 
[V:1] C2E2D2C2- | 
[V:2] g4f2e2 | 
[V:3] z8 | 
[V:4] z8 | 
[V:1] CDE2DG2A | 
[V:2] c4G2c2 | 
[V:3] z8 | 
[V:4] z8 | 
[V:1] BGAG2cBd- | 
[V:2] defge2d2 | 
[V:3] z8 | 
[V:4] z8 | 
[V:1] de2c2AB2 | 
[V:2] g2c2efd2 | 
[V:3] z8 | 
[V:4] z8 | 
[V:1] c4z4 | 
[V:2] c4z4 | 
[V:3] z8 | 
[V:4] z4A,B,/C/DB, | 
[V:1] c4B4 | 
[V:2] z8 | 
[V:3] z8 | 
[V:4] C2A,2G,4 | 
[V:1] c2d3cA2 | 
[V:2] z8 | 
[V:3] z8 | 
[V:4] z2D,2E,2F,2 | 
[V:1] G2d4c2 | 
[V:2] z8 | 
[V:3] z8 | 
[V:4] G,3A,B,2C2 | 
[V:1] B4A3F | 
[V:2] z8 | 
[V:3] z8 | 
[V:4] D2E2F4 | 
[V:1] G2A4B2 | 
[V:2] z8 | 
[V:3] z8 | 
[V:4] E2D2EDCB, | 
[V:1] c2BA2GF2 | 
[V:2] z8 | 
[V:3] z8 | 
[V:4] A,2D2C2D2 | 
[V:1] G2E2DF2G | 
[V:2] z4z2d2 | 
[V:3] z8 | 
[V:4] B,2C2D2z2 | 
[V:1] E2D2A,2B,2 | 
[V:2] c2d2e2g2 | 
[V:3] z8 | 
[V:4] z8 | 
[V:1] D4C2D2 | 
[V:2] f2a4gf | 
[V:3] z8 | 
[V:4] z8 | 
[V:1] E2C2D2F2 | 
[V:2] e2g2f2d2- | 
[V:3] z8 | 
[V:4] z8 | 
[V:1] E4D4 | 
[V:2] dec2f3e | 
[V:3] z8 | 
[V:4] z4_B,3G, | 
[V:1] z4z2d2- | 
[V:2] d2c2B4 | 
[V:3] z8 | 
[V:4] F,G,A,2D,E,F,G, | 
[V:1] d2c2B2G2 | 
[V:2] A4z2B2 | 
[V:3] z8 | 
[V:4] F,G,A,F,G,2z2 | 
[V:1] A2c3BA2 | 
[V:2] A4G2c2- | 
[V:3] z8 | 
[V:4] z8 | 
[V:1] G2d2c2B2 | 
[V:2] c2B2A2d2- | 
[V:3] z8 | 
[V:4] z8 | 
[V:1] A2G2c3B | 
[V:2] d2B2A2f2- | 
[V:3] z8 | 
[V:4] z8 | 
[V:1] A2G2F2E2 | 
[V:2] f2e2d2c2 | 
[V:3] z8 | 
[V:4] z8 | 
[V:1] D2G2F2A2- | 
[V:2] B2G2A4 | 
[V:3] z8 | 
[V:4] z8 | 
[V:1] A2B2G2c2- | 
[V:2] F2G4E2 | 
[V:3] z8 | 
[V:4] z8 | 
[V:1] c2A2B2G2 | 
[V:2] F4G2B2 | 
[V:3] z8 | 
[V:4] z4G,4 | 
[V:1] A3GE2F2 | 
[V:2] A2c2Bcd2 | 
[V:3] z8 | 
[V:4] F,2A,4D,2 | 
[V:1] D2G4^F2 | 
[V:2] B2c2A4 | 
[V:3] z8 | 
[V:4] G,2C,2D,4 | 
[V:1] G8 ||  
[V:2] G8 ||  
[V:3] z8 ||  
[V:4] G,8 ||  



